svg/fluentui-system-icons/ic_fluent_tray_item_remove_20_filled.svg

<svg width="20" height="20" viewBox="0 0 20 20" fill="none" xmlns="http://www.w3.org/2000/svg">
<path d="M12 2C11.4477 2 11 2.44772 11 3V5C11 5.55228 11.4477 6 12 6H15C15.5523 6 16 5.55228 16 5V3C16 2.44772 15.5523 2 15 2H12ZM13.8536 7.14645C13.6583 6.95118 13.3417 6.95118 13.1464 7.14645L11.1464 9.14645C10.9512 9.34171 10.9512 9.65829 11.1464 9.85355C11.3417 10.0488 11.6583 10.0488 11.8536 9.85355L13 8.70711V14.5C13 14.7761 13.2239 15 13.5 15C13.7761 15 14 14.7761 14 14.5V8.70711L15.1464 9.85355C15.3417 10.0488 15.6583 10.0488 15.8536 9.85355C16.0488 9.65829 16.0488 9.34171 15.8536 9.14645L13.8536 7.14645ZM5 11C4.44772 11 4 11.4477 4 12V14C4 14.5523 4.44772 15 5 15H8C8.55229 15 9 14.5523 9 14V12C9 11.4477 8.55229 11 8 11H5ZM3 13.5C3 13.2239 2.77614 13 2.5 13C2.22386 13 2 13.2239 2 13.5V15C2 16.1046 2.89543 17 4 17H16C17.1046 17 18 16.1046 18 15V13.5C18 13.2239 17.7761 13 17.5 13C17.2239 13 17 13.2239 17 13.5V15C17 15.5523 16.5523 16 16 16H4C3.44772 16 3 15.5523 3 15V13.5Z" fill="#212121"/>
</svg>

<svg xmlns="http://www.w3.org/2000/svg" width="20" height="20"><path d="M12 2a1 1 0 0 0-1 1v2a1 1 0 0 0 1 1h3a1 1 0 0 0 1-1V3a1 1 0 0 0-1-1h-3Zm1.854 5.146a.5.5 0 0 0-.708 0l-2 2a.5.5 0 0 0 .708.708L13 8.707V14.5a.5.5 0 0 0 1 0V8.707l1.146 1.147a.5.5 0 0 0 .708-.708l-2-2ZM5 11a1 1 0 0 0-1 1v2a1 1 0 0 0 1 1h3a1 1 0 0 0 1-1v-2a1 1 0 0 0-1-1H5Zm-2 2.5a.5.5 0 0 0-1 0V15a2 2 0 0 0 2 2h12a2 2 0 0 0 2-2v-1.5a.5.5 0 0 0-1 0V15a1 1 0 0 1-1 1H4a1 1 0 0 1-1-1v-1.5Z"/></svg>
